X:1
T:Title
%%score { ( 1 3 5 ) | ( 2 4 ) }
L:1/8
M:9/8
K:Db
V:1 treble nm="Grand Piano"
V:3 treble 
V:5 treble 
V:2 bass 
V:4 bass 
V:1
 z3 z3[Q:1/4=100] F2 E | z3 z F[DFA] [Fd][Ac][GB] | [FA]3 F3 D2 F | B3- BAG FED |[M:3/4] [CE]6 | %5
[M:3/8] [CF]2 [CE] |[M:9/8] z3 z F[DFA] [Fd][Ac][GB] | [FA]3 F3 F2 F | E3- EAB cd[DE=G] | %9
[M:3/4] [CEA]6 |[M:3/8] A2 A |[M:9/8] .c6 z3 | [DGB]3 [DFA]3 A2 A | .e6 z3 |[M:3/4] [A,DF]6 | %15
[M:3/8] z3 |[M:9/8] .f6 z3 | [Ac]3 B3 G2 E | z2 F F2 d cB[Gc] |[M:3/4] [Fd]6 |] %20
V:2
 z3 z3 [D,A,D]2 [D,G,C] | F,3- F,A,D, [D,A,]2 [D,D] | [D,D]3 [D,A,D]3 [D,F,]2 [D,A,D] | %3
 D3- D-[F,A,D][E,A,C] [D,A,D][C,A,][B,,=G,B,] |[M:3/4] [A,,A,]6 |[M:3/8] [A,,A,]2 [A,,G,] | %6
[M:9/8] D,3- D,-[D,A,]D, [D,A,]2 [D,D] | [D,D]3 [D,A,D]3 [D,A,D]2 [D,A,D] | %8
 [E,A,C]3- [E,A,C]2 [E,=G,E] [E,E]-[E,B,E]E, |[M:3/4] A,,6 |[M:3/8] z3 | %11
[M:9/8][K:treble] [A,EG]2 [A,E] ED[A,CF][K:bass] z =DA,, | D,3 D,3 z3 | %13
 [A,CG]2 [A,C] CD[A,EG] GF[K:bass]A,, |[M:3/4] D,6 |[M:3/8][K:treble] A2 A | %16
[M:9/8][K:bass] z3 .D3 z3 | [G,D]3 [G,DG]3 z3 | %18
 [A,DF]2 [A,D] [A,D]2 [A,F][K:bass] [A,,A,]2 [A,,A,] |[M:3/4] [D,A,]6 |] %20
V:3
 x9 | D6 z3 | x9 | x9 |[M:3/4] x6 |[M:3/8] x3 |[M:9/8] D6 z3 | x9 | x9 |[M:3/4] x6 |[M:3/8] x3 | %11
[M:9/8] z3 .G3 z3 | x9 | z2 G z dc BA[A,EG] |[M:3/4] x6 |[M:3/8] x3 | %16
[M:9/8] A2 A Ae[Fd] [DF][EG][FA] | x9 | A6 .G3 |[M:3/4] x6 |] %20
V:4
 x9 | D,6 z3 | x9 | .G,6 z3 |[M:3/4] x6 |[M:3/8] x3 |[M:9/8] .F,6 z3 | x9 | z3 z3 .A,3 | %9
[M:3/4] x6 |[M:3/8] x3 |[M:9/8][K:treble] z3 .A,3[K:bass] .[A,,A,]3 | x9 | %13
 z3 .A,3 .[A,C]3[K:bass] |[M:3/4] x6 |[M:3/8][K:treble] x3 | %16
[M:9/8][K:bass] [D,D]2 [D,D] D,-[D,A,G][D,A,] [D,A,]2 [D,D] | x9 | x6[K:bass] x3 |[M:3/4] x6 |] %20
V:5
 x9 | x9 | x9 | x9 |[M:3/4] x6 |[M:3/8] x3 |[M:9/8] x9 | x9 | x9 |[M:3/4] x6 |[M:3/8] x3 | %11
[M:9/8] z2 G z BA [EG]F[CEG] | x9 | z3 .G3 z3 |[M:3/4] x6 |[M:3/8] x3 |[M:9/8] x9 | x9 | x9 | %19
[M:3/4] x6 |] %20

